X:1
T:God Moves on the Water
M:1/2
L:1/8
K:G
 z4| z2B-c| G4-| G B2 G| B4| G zG-d| d4-| d g2 g| d2- B2| G zB-c| G4-|\
 G B2 G| B4| G/2 z/2 G2 G| cd cG| B B3| G2 GG| c c3| B3/2- G/2- B2|\
 z c c2|B-G G3/2 G/2| B21.333334/16 c21.333334/16 B21.333334/16| c2c-G|\
 B4| z2 GG| c c3| cc B2| c c3|B-G G3/2 G/2| BB cB| c B3| G2 z2|

